icons/asthma_inhaler.svg

<svg width="48" height="48" viewBox="0 0 48 48" fill="none" xmlns="http://www.w3.org/2000/svg">
<path fill-rule="evenodd" clip-rule="evenodd" d="M16.3312 6.74118C16.2625 6.485 16.0949 6.26659 15.8652 6.13398C15.6356 6.00137 15.3626 5.96543 15.1064 6.03408L7.37901 8.10463C7.12283 8.17327 6.90441 8.34087 6.7718 8.57055C6.63919 8.80024 6.60326 9.07319 6.6719 9.32937L8.17812 14.9506L7.10362 15.4395C6.6567 15.6428 6.4235 16.1405 6.55329 16.614L12.229 37.3217C12.8244 39.494 14.7987 41 17.0511 41H30C30.2652 41 30.5195 40.8946 30.7071 40.7071C30.8946 40.5196 31 40.2652 31 40V39H34C34.5523 39 35 38.5523 35 38V30C35 29.4477 34.5523 29 34 29H31V28C31 27.4477 30.5522 27 30 27H23.83L19.5571 11.0532C19.481 10.7693 19.2839 10.5332 19.0181 10.4077C18.7522 10.2822 18.4447 10.2801 18.1771 10.4018L17.406 10.7526L16.3312 6.74118ZM8.70742 16.9073L17.9308 12.7112L22.0968 28.2588C22.2139 28.696 22.6101 29 23.0627 29H29L29 39H17.0511C15.6997 39 14.5151 38.0964 14.1578 36.793L8.70742 16.9073ZM15.5605 11.5923L10.0237 14.1112L8.86257 9.77766L14.6581 8.22475L15.5605 11.5923ZM31 37V31H33V37H31Z" fill="black"/>
<path d="M42 31C42.5523 31 43 30.5523 43 30C43 29.4477 42.5523 29 42 29C41.4477 29 41 29.4477 41 30C41 30.5523 41.4477 31 42 31Z" fill="black"/>
<path d="M38 33C38.5523 33 39 32.5523 39 32C39 31.4477 38.5523 31 38 31C37.4477 31 37 31.4477 37 32C37 32.5523 37.4477 33 38 33Z" fill="black"/>
<path d="M38 37C38.5523 37 39 36.5523 39 36C39 35.4477 38.5523 35 38 35C37.4477 35 37 35.4477 37 36C37 36.5523 37.4477 37 38 37Z" fill="black"/>
<path d="M43 34C43 34.5523 42.5523 35 42 35C41.4477 35 41 34.5523 41 34C41 33.4477 41.4477 33 42 33C42.5523 33 43 33.4477 43 34Z" fill="black"/>
<path d="M43 38C43 38.5523 42.5523 39 42 39C41.4477 39 41 38.5523 41 38C41 37.4477 41.4477 37 42 37C42.5523 37 43 37.4477 43 38Z" fill="black"/>
</svg>

<svg
  xmlns="http://www.w3.org/2000/svg"
  width="24"
  height="24"
  viewBox="0 0 24 24"
  fill="none"
  stroke="currentColor"
  stroke-width="2"
  stroke-linecap="round"
  stroke-linejoin="round"
>
  <path
    fill-rule="evenodd"
    d="M16.331 6.741a1 1 0 0 0-1.225-.707L7.38 8.104a1 1 0 0 0-.707 1.225l1.506 5.622-1.074.489a1 1 0 0 0-.55 1.174l5.675 20.708A5 5 0 0 0 17.051 41H30a1 1 0 0 0 1-1v-1h3a1 1 0 0 0 1-1v-8a1 1 0 0 0-1-1h-3v-1a1 1 0 0 0-1-1h-6.17l-4.273-15.947a1 1 0 0 0-1.38-.651l-.771.35zM8.707 16.907l9.224-4.196 4.166 15.548a1 1 0 0 0 .966.741H29v10H17.051a3 3 0 0 1-2.893-2.207zm6.853-5.315-5.536 2.52-1.161-4.334 5.795-1.553zM31 37v-6h2v6z"
    clip-rule="evenodd"
  />
  <path d="M42 31a1 1 0 1 0 0-2 1 1 0 0 0 0 2" />
  <path d="M38 33a1 1 0 1 0 0-2 1 1 0 0 0 0 2" />
  <path d="M38 37a1 1 0 1 0 0-2 1 1 0 0 0 0 2" />
  <path d="M43 34a1 1 0 1 1-2 0 1 1 0 0 1 2 0" />
  <path d="M43 38a1 1 0 1 1-2 0 1 1 0 0 1 2 0" />
</svg>
